flaticon/symbols/good-luck.svg

<svg xmlns="http://www.w3.org/2000/svg" width="32" height="32" viewBox="0 0 24 24">
    <path d="M 23.601562 0 L 0 0 L 0 24 L 24 24 L 24 0 Z M 13.617188 14.550781 C 13.617188 14.59375 13.621094 14.636719 13.625 14.679688 C 13.636719 14.820312 13.648438 14.960938 13.660156 15.101562 C 13.667969 15.144531 13.671875 15.191406 13.679688 15.234375 C 13.695312 15.375 13.714844 15.515625 13.738281 15.65625 C 13.746094 15.695312 13.753906 15.734375 13.761719 15.777344 C 13.789062 15.921875 13.816406 16.0625 13.847656 16.203125 C 13.855469 16.242188 13.863281 16.277344 13.875 16.3125 C 13.90625 16.460938 13.945312 16.605469 13.988281 16.75 C 13.996094 16.78125 14.003906 16.8125 14.015625 16.84375 C 14.058594 17 14.109375 17.152344 14.164062 17.304688 C 14.171875 17.324219 14.175781 17.34375 14.183594 17.367188 C 14.308594 17.707031 14.449219 18.042969 14.605469 18.367188 C 14.613281 18.378906 14.617188 18.390625 14.621094 18.398438 L 9.378906 18.398438 C 9.382812 18.390625 9.386719 18.378906 9.394531 18.367188 C 9.550781 18.042969 9.691406 17.707031 9.816406 17.367188 C 9.824219 17.34375 9.828125 17.324219 9.835938 17.304688 C 9.890625 17.152344 9.941406 17 9.984375 16.84375 C 9.996094 16.8125 10.003906 16.78125 10.011719 16.75 C 10.054688 16.605469 10.09375 16.460938 10.128906 16.3125 C 10.136719 16.277344 10.144531 16.242188 10.152344 16.203125 C 10.183594 16.0625 10.214844 15.917969 10.238281 15.777344 C 10.246094 15.734375 10.253906 15.695312 10.261719 15.65625 C 10.285156 15.515625 10.304688 15.375 10.320312 15.234375 C 10.328125 15.191406 10.332031 15.144531 10.339844 15.101562 C 10.355469 14.960938 10.363281 14.820312 10.375 14.679688 C 10.378906 14.636719 10.382812 14.59375 10.386719 14.550781 C 10.394531 14.367188 10.398438 14.183594 10.398438 14 L 10.398438 13.601562 L 10 13.601562 C 9.816406 13.601562 9.632812 13.605469 9.449219 13.617188 C 9.40625 13.617188 9.363281 13.621094 9.320312 13.625 C 9.179688 13.636719 9.039062 13.648438 8.898438 13.660156 C 8.855469 13.667969 8.808594 13.671875 8.765625 13.679688 C 8.625 13.695312 8.484375 13.714844 8.34375 13.738281 C 8.304688 13.746094 8.265625 13.753906 8.222656 13.761719 C 8.078125 13.789062 7.9375 13.816406 7.796875 13.847656 C 7.757812 13.855469 7.722656 13.863281 7.6875 13.875 C 7.539062 13.90625 7.394531 13.945312 7.25 13.988281 C 7.21875 13.996094 7.1875 14.003906 7.15625 14.015625 C 7 14.058594 6.847656 14.109375 6.695312 14.164062 C 6.675781 14.171875 6.65625 14.175781 6.632812 14.183594 C 6.292969 14.308594 5.957031 14.449219 5.632812 14.605469 C 5.621094 14.613281 5.609375 14.617188 5.601562 14.621094 L 5.601562 9.378906 C 5.609375 9.382812 5.621094 9.386719 5.632812 9.394531 C 5.957031 9.550781 6.292969 9.691406 6.632812 9.816406 C 6.65625 9.824219 6.675781 9.828125 6.695312 9.835938 C 6.847656 9.890625 7 9.941406 7.15625 9.984375 C 7.1875 9.996094 7.21875 10.003906 7.25 10.011719 C 7.394531 10.054688 7.539062 10.09375 7.6875 10.128906 C 7.722656 10.136719 7.757812 10.144531 7.796875 10.152344 C 7.9375 10.183594 8.082031 10.214844 8.222656 10.238281 C 8.265625 10.246094 8.304688 10.253906 8.34375 10.261719 C 8.484375 10.285156 8.625 10.304688 8.765625 10.320312 C 8.808594 10.328125 8.855469 10.332031 8.898438 10.339844 C 9.039062 10.355469 9.179688 10.363281 9.320312 10.375 C 9.363281 10.378906 9.40625 10.382812 9.449219 10.386719 C 9.632812 10.394531 9.816406 10.398438 10 10.398438 L 10.398438 10.398438 L 10.398438 10 C 10.398438 9.816406 10.394531 9.632812 10.382812 9.449219 C 10.382812 9.40625 10.378906 9.363281 10.375 9.320312 C 10.363281 9.179688 10.351562 9.039062 10.339844 8.898438 C 10.332031 8.855469 10.328125 8.808594 10.320312 8.765625 C 10.304688 8.625 10.285156 8.484375 10.261719 8.34375 C 10.253906 8.304688 10.246094 8.265625 10.238281 8.222656 C 10.210938 8.078125 10.183594 7.9375 10.152344 7.796875 C 10.144531 7.757812 10.136719 7.722656 10.125 7.6875 C 10.09375 7.539062 10.054688 7.394531 10.011719 7.25 C 10.003906 7.21875 9.996094 7.1875 9.984375 7.15625 C 9.941406 7 9.890625 6.847656 9.835938 6.695312 C 9.828125 6.675781 9.824219 6.65625 9.816406 6.632812 C 9.691406 6.292969 9.550781 5.957031 9.394531 5.632812 C 9.386719 5.621094 9.382812 5.609375 9.378906 5.601562 L 14.621094 5.601562 C 14.613281 5.609375 14.609375 5.621094 14.605469 5.632812 C 14.449219 5.957031 14.308594 6.292969 14.183594 6.632812 C 14.175781 6.65625 14.167969 6.675781 14.164062 6.695312 C 14.109375 6.847656 14.058594 7 14.011719 7.15625 C 14.003906 7.1875 13.996094 7.21875 13.988281 7.25 C 13.945312 7.394531 13.90625 7.539062 13.871094 7.6875 C 13.863281 7.722656 13.855469 7.757812 13.847656 7.796875 C 13.816406 7.9375 13.785156 8.082031 13.761719 8.222656 C 13.753906 8.265625 13.746094 8.304688 13.738281 8.34375 C 13.714844 8.484375 13.695312 8.625 13.679688 8.765625 C 13.671875 8.808594 13.664062 8.855469 13.660156 8.898438 C 13.644531 9.039062 13.632812 9.179688 13.625 9.320312 C 13.621094 9.363281 13.617188 9.40625 13.613281 9.449219 C 13.605469 9.632812 13.601562 9.816406 13.601562 10 L 13.601562 10.398438 L 14 10.398438 C 14.183594 10.398438 14.367188 10.394531 14.550781 10.382812 C 14.59375 10.382812 14.636719 10.378906 14.679688 10.375 C 14.820312 10.363281 14.960938 10.351562 15.101562 10.339844 C 15.144531 10.332031 15.191406 10.328125 15.234375 10.320312 C 15.375 10.304688 15.515625 10.285156 15.65625 10.261719 C 15.695312 10.253906 15.734375 10.246094 15.777344 10.238281 C 15.921875 10.210938 16.0625 10.183594 16.203125 10.152344 C 16.242188 10.144531 16.277344 10.136719 16.3125 10.125 C 16.460938 10.09375 16.605469 10.054688 16.75 10.011719 C 16.78125 10.003906 16.8125 9.996094 16.84375 9.984375 C 17 9.941406 17.152344 9.890625 17.304688 9.835938 C 17.324219 9.828125 17.34375 9.824219 17.367188 9.816406 C 17.707031 9.691406 18.042969 9.550781 18.367188 9.394531 C 18.378906 9.386719 18.390625 9.382812 18.398438 9.378906 L 18.398438 14.621094 C 18.390625 14.613281 18.378906 14.609375 18.367188 14.605469 C 18.042969 14.449219 17.707031 14.308594 17.367188 14.183594 C 17.34375 14.175781 17.324219 14.167969 17.304688 14.164062 C 17.152344 14.109375 17 14.058594 16.84375 14.011719 C 16.8125 14.003906 16.78125 13.996094 16.75 13.988281 C 16.605469 13.945312 16.460938 13.90625 16.3125 13.871094 C 16.277344 13.863281 16.242188 13.855469 16.203125 13.847656 C 16.0625 13.816406 15.917969 13.785156 15.777344 13.761719 C 15.734375 13.753906 15.695312 13.746094 15.65625 13.738281 C 15.515625 13.714844 15.375 13.695312 15.234375 13.679688 C 15.191406 13.671875 15.144531 13.664062 15.101562 13.660156 C 14.960938 13.644531 14.820312 13.632812 14.679688 13.625 C 14.636719 13.621094 14.59375 13.617188 14.550781 13.613281 C 14.367188 13.605469 14.183594 13.601562 14 13.601562 L 13.601562 13.601562 L 13.601562 14 C 13.601562 14.183594 13.605469 14.367188 13.617188 14.550781 Z M 17.847656 8.75 C 17.796875 8.773438 17.75 8.796875 17.699219 8.820312 C 17.480469 8.917969 17.257812 9.003906 17.027344 9.085938 C 16.964844 9.105469 16.902344 9.125 16.839844 9.144531 C 16.652344 9.207031 16.460938 9.261719 16.269531 9.3125 C 16.207031 9.328125 16.148438 9.34375 16.085938 9.359375 C 15.855469 9.414062 15.617188 9.457031 15.378906 9.492188 C 15.3125 9.503906 15.242188 9.511719 15.175781 9.519531 C 14.925781 9.550781 14.675781 9.578125 14.417969 9.589844 C 14.414062 9.589844 14.414062 9.589844 14.410156 9.589844 C 14.410156 9.585938 14.410156 9.585938 14.410156 9.582031 C 14.421875 9.324219 14.449219 9.074219 14.480469 8.824219 C 14.488281 8.757812 14.496094 8.6875 14.507812 8.621094 C 14.542969 8.382812 14.585938 8.144531 14.640625 7.914062 C 14.65625 7.851562 14.671875 7.792969 14.6875 7.730469 C 14.738281 7.539062 14.792969 7.347656 14.855469 7.160156 C 14.875 7.097656 14.894531 7.035156 14.914062 6.972656 C 14.996094 6.742188 15.082031 6.519531 15.179688 6.300781 C 15.203125 6.25 15.226562 6.203125 15.25 6.152344 C 15.34375 5.949219 15.441406 5.75 15.550781 5.554688 C 15.566406 5.527344 15.582031 5.496094 15.597656 5.46875 C 17.117188 2.792969 19.9375 0.953125 23.191406 0.808594 C 23.046875 4.0625 21.207031 6.882812 18.53125 8.402344 C 18.503906 8.417969 18.472656 8.433594 18.445312 8.449219 C 18.25 8.558594 18.050781 8.65625 17.847656 8.75 Z M 19.683594 0.800781 C 17.757812 1.621094 16.144531 3.03125 15.0625 4.800781 L 8.9375 4.800781 C 7.855469 3.03125 6.242188 1.621094 4.316406 0.800781 Z M 8.402344 5.46875 C 8.417969 5.496094 8.433594 5.527344 8.449219 5.554688 C 8.558594 5.75 8.65625 5.949219 8.75 6.152344 C 8.773438 6.203125 8.796875 6.25 8.820312 6.300781 C 8.917969 6.519531 9.003906 6.742188 9.085938 6.972656 C 9.105469 7.035156 9.125 7.097656 9.144531 7.160156 C 9.207031 7.347656 9.261719 7.539062 9.3125 7.730469 C 9.328125 7.792969 9.34375 7.851562 9.359375 7.914062 C 9.414062 8.144531 9.457031 8.382812 9.492188 8.621094 C 9.503906 8.6875 9.511719 8.757812 9.519531 8.824219 C 9.554688 9.074219 9.578125 9.324219 9.589844 9.582031 C 9.589844 9.585938 9.589844 9.585938 9.589844 9.589844 C 9.585938 9.589844 9.585938 9.589844 9.582031 9.589844 C 9.324219 9.578125 9.074219 9.550781 8.824219 9.519531 C 8.757812 9.511719 8.691406 9.503906 8.621094 9.492188 C 8.382812 9.457031 8.144531 9.414062 7.914062 9.359375 C 7.851562 9.34375 7.792969 9.328125 7.730469 9.3125 C 7.539062 9.261719 7.347656 9.207031 7.160156 9.144531 C 7.097656 9.125 7.035156 9.105469 6.972656 9.085938 C 6.742188 9.003906 6.519531 8.917969 6.300781 8.820312 C 6.25 8.796875 6.203125 8.773438 6.152344 8.75 C 5.949219 8.65625 5.75 8.558594 5.554688 8.449219 C 5.527344 8.433594 5.496094 8.417969 5.46875 8.402344 C 2.792969 6.882812 0.953125 4.0625 0.808594 0.808594 C 4.0625 0.953125 6.882812 2.792969 8.402344 5.46875 Z M 0.800781 4.316406 C 1.621094 6.242188 3.03125 7.855469 4.800781 8.9375 L 4.800781 15.0625 C 3.03125 16.144531 1.621094 17.757812 0.800781 19.683594 Z M 5.46875 15.597656 C 5.496094 15.582031 5.527344 15.566406 5.554688 15.550781 C 5.75 15.441406 5.949219 15.34375 6.152344 15.246094 C 6.203125 15.226562 6.25 15.203125 6.300781 15.179688 C 6.519531 15.082031 6.742188 14.996094 6.972656 14.914062 C 7.035156 14.894531 7.097656 14.875 7.160156 14.851562 C 7.347656 14.792969 7.539062 14.738281 7.730469 14.6875 C 7.792969 14.671875 7.851562 14.65625 7.914062 14.640625 C 8.144531 14.585938 8.382812 14.542969 8.621094 14.507812 C 8.6875 14.496094 8.757812 14.488281 8.824219 14.480469 C 9.074219 14.445312 9.324219 14.421875 9.582031 14.410156 C 9.585938 14.410156 9.585938 14.410156 9.589844 14.410156 C 9.589844 14.410156 9.589844 14.414062 9.589844 14.417969 C 9.578125 14.675781 9.554688 14.925781 9.519531 15.175781 C 9.511719 15.242188 9.503906 15.308594 9.492188 15.378906 C 9.457031 15.617188 9.414062 15.855469 9.359375 16.085938 C 9.34375 16.148438 9.328125 16.207031 9.3125 16.269531 C 9.261719 16.460938 9.207031 16.652344 9.144531 16.839844 C 9.125 16.902344 9.105469 16.964844 9.085938 17.027344 C 9.003906 17.253906 8.917969 17.480469 8.820312 17.699219 C 8.796875 17.75 8.773438 17.796875 8.75 17.847656 C 8.65625 18.050781 8.558594 18.25 8.449219 18.445312 C 8.433594 18.472656 8.417969 18.503906 8.402344 18.53125 C 6.882812 21.203125 4.0625 23.046875 0.808594 23.191406 C 0.953125 19.9375 2.792969 17.117188 5.46875 15.597656 Z M 4.316406 23.199219 C 6.242188 22.378906 7.855469 20.96875 8.9375 19.199219 L 15.0625 19.199219 C 16.144531 20.96875 17.757812 22.378906 19.683594 23.199219 Z M 15.597656 18.53125 C 15.582031 18.503906 15.566406 18.472656 15.550781 18.445312 C 15.441406 18.25 15.34375 18.050781 15.246094 17.847656 C 15.226562 17.796875 15.203125 17.75 15.179688 17.699219 C 15.082031 17.480469 14.996094 17.257812 14.914062 17.027344 C 14.894531 16.964844 14.875 16.902344 14.855469 16.839844 C 14.792969 16.652344 14.738281 16.460938 14.6875 16.269531 C 14.671875 16.207031 14.65625 16.148438 14.640625 16.085938 C 14.585938 15.855469 14.542969 15.617188 14.507812 15.378906 C 14.496094 15.3125 14.488281 15.242188 14.480469 15.175781 C 14.445312 14.925781 14.421875 14.675781 14.410156 14.417969 C 14.410156 14.414062 14.410156 14.414062 14.410156 14.410156 C 14.414062 14.410156 14.414062 14.410156 14.417969 14.410156 C 14.675781 14.421875 14.925781 14.449219 15.175781 14.480469 C 15.242188 14.488281 15.308594 14.496094 15.378906 14.507812 C 15.617188 14.542969 15.855469 14.585938 16.085938 14.640625 C 16.148438 14.65625 16.207031 14.671875 16.269531 14.6875 C 16.460938 14.738281 16.652344 14.792969 16.839844 14.855469 C 16.902344 14.875 16.964844 14.894531 17.027344 14.914062 C 17.253906 14.996094 17.480469 15.082031 17.699219 15.179688 C 17.75 15.203125 17.796875 15.226562 17.847656 15.25 C 18.050781 15.34375 18.25 15.441406 18.445312 15.550781 C 18.472656 15.566406 18.503906 15.582031 18.53125 15.597656 C 21.203125 17.117188 23.046875 19.9375 23.191406 23.191406 C 19.9375 23.046875 17.117188 21.207031 15.597656 18.53125 Z M 23.199219 19.683594 C 22.378906 17.757812 20.96875 16.144531 19.199219 15.0625 L 19.199219 8.9375 C 20.96875 7.855469 22.378906 6.242188 23.199219 4.316406 Z M 23.199219 19.683594"/>
    <path d="M22.183594 2.296875L22.328125 1.671875 21.703125 1.816406C18.601562 2.535156 16.132812 5.003906 15.414062 8.105469L15.269531 8.730469 15.894531 8.585938C18.996094 7.867188 21.464844 5.398438 22.183594 2.296875zM16.382812 7.617188C17.136719 5.347656 18.945312 3.535156 21.21875 2.78125 20.464844 5.054688 18.652344 6.863281 16.382812 7.617188zM8.730469 15.269531L8.105469 15.414062C5.003906 16.132812 2.535156 18.601562 1.816406 21.703125L1.671875 22.328125 2.296875 22.183594C5.398438 21.464844 7.867188 18.996094 8.585938 15.894531zM2.78125 21.21875C3.535156 18.945312 5.347656 17.136719 7.617188 16.382812 6.863281 18.652344 5.054688 20.464844 2.78125 21.21875zM15.894531 15.414062L15.269531 15.269531 15.414062 15.894531C16.132812 18.996094 18.601562 21.464844 21.703125 22.183594L22.328125 22.328125 22.183594 21.703125C21.464844 18.601562 18.996094 16.132812 15.894531 15.414062zM16.382812 16.382812C18.652344 17.136719 20.464844 18.945312 21.21875 21.21875 18.945312 20.464844 17.136719 18.652344 16.382812 16.382812zM8.105469 8.585938L8.730469 8.730469 8.585938 8.105469C7.867188 5.003906 5.398438 2.535156 2.296875 1.816406L1.671875 1.671875 1.816406 2.296875C2.535156 5.398438 5.003906 7.867188 8.105469 8.585938zM7.617188 7.617188C5.347656 6.863281 3.535156 5.054688 2.78125 2.78125 5.054688 3.535156 6.863281 5.347656 7.617188 7.617188zM7.617188 7.617188"/>
</svg>

<svg xmlns="http://www.w3.org/2000/svg" width="32" height="32" viewBox="0 0 24 24">
    <path d="M23.602 0H0v24h24V0zm-9.985 14.55c0 .044.004.087.008.13l.035.422c.008.043.012.09.02.132a7.815 7.815 0 0 0 .168.97c.007.038.015.073.027.108.031.149.07.293.113.438.008.031.016.063.028.094.043.156.093.308.148.46.008.02.012.04.02.063.125.34.265.676.421 1 .008.012.012.024.016.031H9.38c.004-.007.008-.02.016-.03.156-.325.296-.661.421-1 .008-.024.012-.044.02-.063a6.33 6.33 0 0 0 .148-.461c.012-.032.02-.063.028-.094a7.992 7.992 0 0 0 .226-.973l.024-.12c.023-.141.043-.282.058-.423.008-.043.012-.09.02-.132.015-.141.023-.282.035-.422l.012-.13c.008-.183.011-.366.011-.55v-.398H10a8.641 8.641 0 0 0-.68.023l-.422.035c-.043.008-.09.012-.132.02a7.815 7.815 0 0 0-.97.168.895.895 0 0 0-.109.027c-.148.031-.292.07-.437.113-.031.008-.063.016-.094.028a6.33 6.33 0 0 0-.46.148c-.02.008-.04.012-.063.02-.34.125-.676.265-1 .421-.012.008-.024.012-.031.016V9.38c.007.004.02.008.03.016.325.156.661.296 1 .421.024.008.044.012.063.02.153.055.305.105.461.148.032.012.063.02.094.028a7.992 7.992 0 0 0 .973.226l.12.024c.141.023.282.043.423.058.043.008.09.012.132.02.141.015.282.023.422.035l.13.012c.183.008.366.011.55.011h.398V10a8.641 8.641 0 0 0-.023-.68l-.035-.422c-.008-.043-.012-.09-.02-.132a7.815 7.815 0 0 0-.168-.97.895.895 0 0 0-.027-.109 5.526 5.526 0 0 0-.113-.437c-.008-.031-.016-.063-.028-.094a6.33 6.33 0 0 0-.148-.46c-.008-.02-.012-.04-.02-.063-.125-.34-.265-.676-.421-1-.008-.012-.012-.024-.016-.031h5.242c-.008.007-.012.02-.016.03-.156.325-.296.661-.421 1-.008.024-.016.044-.02.063a9.09 9.09 0 0 0-.152.461l-.024.094a7.992 7.992 0 0 0-.226.973 7.815 7.815 0 0 0-.082.543c-.008.043-.016.09-.02.132-.015.141-.027.282-.035.422l-.012.13c-.008.183-.011.366-.011.55v.398H14a8.641 8.641 0 0 0 .68-.023l.422-.035c.043-.008.09-.012.132-.02a7.815 7.815 0 0 0 .97-.168.895.895 0 0 0 .108-.027c.149-.031.293-.07.438-.113.031-.008.063-.016.094-.028a6.33 6.33 0 0 0 .46-.148c.02-.008.04-.012.063-.02.34-.125.676-.265 1-.421.012-.008.024-.012.031-.016v5.242c-.007-.008-.02-.012-.03-.016-.325-.156-.661-.296-1-.421-.024-.008-.044-.016-.063-.02a9.09 9.09 0 0 0-.461-.152l-.094-.024a7.992 7.992 0 0 0-.973-.226 7.815 7.815 0 0 0-.543-.082 1.555 1.555 0 0 0-.132-.02 7.674 7.674 0 0 0-.422-.035l-.13-.012a12.954 12.954 0 0 0-.55-.011h-.398V14c0 .184.003.367.015.55zm4.23-5.8c-.05.023-.097.047-.148.07a9.239 9.239 0 0 1-.672.266l-.187.059a9.546 9.546 0 0 1-.57.168l-.184.046c-.23.055-.469.098-.707.133-.066.012-.137.02-.203.028-.25.03-.5.058-.758.07h-.008v-.008c.012-.258.04-.508.07-.758.008-.066.016-.136.028-.203.035-.238.078-.476.133-.707l.046-.184c.051-.19.106-.382.168-.57l.06-.187c.081-.23.167-.453.265-.672l.07-.149c.094-.203.191-.402.3-.597l.048-.086A9.208 9.208 0 0 1 23.19.809a9.208 9.208 0 0 1-4.66 7.593c-.027.016-.058.032-.086.047-.195.11-.394.207-.597.301zM19.685.8c-1.926.821-3.54 2.231-4.622 4H8.939a10.043 10.043 0 0 0-4.622-4zM8.402 5.47c.016.027.032.058.047.086.11.195.207.394.301.597l.07.149c.098.219.184.441.266.672l.059.187c.062.188.117.38.168.57l.046.184c.055.23.098.469.133.707.012.066.02.137.028.203.035.25.058.5.07.758v.008h-.008a9.576 9.576 0 0 1-.96-.098 8.363 8.363 0 0 1-.708-.133l-.184-.046a9.546 9.546 0 0 1-.57-.168l-.187-.06A9.239 9.239 0 0 1 6.3 8.82l-.149-.07a8.545 8.545 0 0 1-.597-.3l-.086-.048A9.208 9.208 0 0 1 .809.81a9.208 9.208 0 0 1 7.593 4.66zM.801 4.316c.82 1.926 2.23 3.54 4 4.622v6.124a10.043 10.043 0 0 0-4 4.622zm4.668 11.282c.027-.016.058-.032.086-.047.195-.11.394-.207.597-.305.051-.02.098-.043.149-.066a9.239 9.239 0 0 1 .86-.328c.187-.059.378-.114.57-.165l.183-.046c.23-.055.469-.098.707-.133.066-.012.137-.02.203-.028.25-.035.5-.058.758-.07h.008v.008a8.03 8.03 0 0 1-.07.758 8.363 8.363 0 0 1-.16.91l-.048.184c-.05.19-.105.382-.167.57l-.06.187c-.081.227-.167.453-.265.672l-.07.149a8.545 8.545 0 0 1-.3.597l-.048.086c-1.52 2.672-4.34 4.516-7.593 4.66a9.208 9.208 0 0 1 4.66-7.593zm-1.153 7.601c1.926-.82 3.54-2.23 4.622-4h6.124a10.043 10.043 0 0 0 4.622 4zm11.282-4.668c-.016-.027-.032-.058-.047-.086-.11-.195-.207-.394-.305-.597-.02-.051-.043-.098-.066-.149a9.239 9.239 0 0 1-.266-.672l-.059-.187a9.546 9.546 0 0 1-.168-.57l-.046-.184a8.363 8.363 0 0 1-.133-.707c-.012-.066-.02-.137-.028-.203a8.03 8.03 0 0 1-.07-.758v-.008h.008a9.576 9.576 0 0 1 .96.098c.24.035.477.078.708.133l.184.046c.19.051.382.106.57.168l.187.06c.227.081.453.167.672.265l.149.07c.203.094.402.191.597.3l.086.048c2.672 1.52 4.516 4.34 4.66 7.593a9.208 9.208 0 0 1-7.593-4.66zm7.601 1.153a10.043 10.043 0 0 0-4-4.622V8.939a10.043 10.043 0 0 0 4-4.622zm0 0"/>
    <path d="M22.184 2.297l.144-.625-.625.144a8.457 8.457 0 0 0-6.289 6.29l-.144.624.625-.144a8.457 8.457 0 0 0 6.289-6.29zm-5.801 5.32a7.667 7.667 0 0 1 4.836-4.836 7.667 7.667 0 0 1-4.836 4.836zm0 0M8.73 15.27l-.625.144a8.457 8.457 0 0 0-6.289 6.29l-.144.624.625-.144a8.457 8.457 0 0 0 6.289-6.29zm-5.949 5.949a7.667 7.667 0 0 1 4.836-4.836 7.667 7.667 0 0 1-4.836 4.836zm0 0M15.895 15.414l-.625-.144.144.625a8.457 8.457 0 0 0 6.29 6.289l.624.144-.144-.625a8.457 8.457 0 0 0-6.29-6.289zm.488.969a7.667 7.667 0 0 1 4.836 4.836 7.667 7.667 0 0 1-4.836-4.836zm0 0M8.105 8.586l.625.144-.144-.625a8.457 8.457 0 0 0-6.29-6.289l-.624-.144.144.625a8.457 8.457 0 0 0 6.29 6.289zm-.488-.969a7.667 7.667 0 0 1-4.836-4.836 7.667 7.667 0 0 1 4.836 4.836zm0 0"/>
</svg>
